packages/vibrant-icons/assets/icons/AlignHorizontalLeft/Thin.svg

<svg width="24" height="24" viewBox="0 0 24 24" fill="none" xmlns="http://www.w3.org/2000/svg"><path d="M1.65039 22.3499v-20.7h1.2v20.7h-1.2Zm4.35-3.25c-.469 0-.85-.381-.85-.85v-4c0-.469.381-.85.85-.85h9.00001c.469 0 .85.381.85.85v4c0 .469-.381.85-.85.85H6.00039Zm.85-1.7h7.30001v-2.3H6.85039v2.3Zm-.85-6.8c-.469 0-.85-.381-.85-.85v-4c0-.469.381-.85.85-.85H21.0004c.469 0 .85.381.85.85v4c0 .469-.381.85-.85.85H6.00039Zm.85-1.7H20.1504v-2.3H6.85039v2.3Z" fill="#000"/></svg>

<svg xmlns="http://www.w3.org/2000/svg" width="24" height="24" fill="none"><path fill="#000" d="M1.65 22.35V1.65h1.2v20.7zM6 19.1a.85.85 0 0 1-.85-.85v-4A.85.85 0 0 1 6 13.4h9a.85.85 0 0 1 .85.85v4a.85.85 0 0 1-.85.85zm.85-1.7h7.3v-2.3h-7.3zM6 10.6a.85.85 0 0 1-.85-.85v-4A.85.85 0 0 1 6 4.9h15a.85.85 0 0 1 .85.85v4a.85.85 0 0 1-.85.85zm.85-1.7h13.3V6.6H6.85z"/></svg>
